offer/images/expand.svg

<svg height="49" viewBox="0 0 47 49" width="47" xmlns="http://www.w3.org/2000/svg"><g fill="none" fill-rule="evenodd" transform="translate(-4 -4)"><path d="m41.5979933 28.483871c0 7.7860912-6.311902 14.0979933-14.0979933 14.0979933s-14.0979933-6.3119021-14.0979933-14.0979933c0-7.7860913 6.311902-14.0979934 14.0979933-14.0979934s14.0979933 6.3119021 14.0979933 14.0979934z" fill="#f9e109"/><path d="m33.6419355 37.2580645c-4.4625-.0017137-8.6199597-2.2646674-11.0444305-6.0108367-2.4244708-3.7465978-2.7852066-8.4661542-.9588205-12.5379284-3.71875 2.1905493-5.8827369 6.2923135-5.5914063 10.5984375.2913307 4.3056955 2.9882813 8.0788558 6.9679436 9.7484375 3.9800908 1.6695817 8.5612651.9498236 11.8374495-1.859375-.3945816.0612651-.7981602.0612651-1.2107358.0612651z" fill="#fcbc04"/><path d="m37.2601492 28.483871c0 5.3905338-4.3696154 9.7601492-9.7601492 9.7601492s-9.7601492-4.3696154-9.7601492-9.7601492 4.3696154-9.7601493 9.7601492-9.7601493 9.7601492 4.3696155 9.7601492 9.7601493z" fill="#e59730"/><path d="m27.5 27.3994099c-1.1977788 0-2.168922-.9711432-2.168922-2.168922s.9711432-2.1689221 2.168922-2.1689221 2.168922.9711433 2.168922 2.1689221c0 .5988894.4855717 1.084461 1.0844611 1.084461s1.084461-.4855716 1.084461-1.084461c-.0063543-1.972999-1.3433972-3.6928864-3.2533831-4.1858713v-2.3208949c0-.5988894-.4855716-1.084461-1.084461-1.084461s-1.084461.4855716-1.084461 1.084461v2.3208949c-2.0884347.5671181-3.4397748 2.5867149-3.1665415 4.733397.2732334 2.1472116 2.0868461 3.7643718 4.2510025 3.7903184 1.1977788 0 2.168922.9711432 2.168922 2.168922s-.9711432 2.1689221-2.168922 2.1689221-2.168922-.9711433-2.168922-2.1689221c0-.5988894-.4855717-1.084461-1.0844611-1.084461s-1.084461.4855716-1.084461 1.084461c.0063543 1.972999 1.3433972 3.6928864 3.2533831 4.1858713v2.3208949c0 .5988894.4855716 1.084461 1.084461 1.084461s1.084461-.4855716 1.084461-1.084461v-2.3208949c2.0884347-.5671181 3.4397748-2.5867149 3.1665415-4.7333969-.2732334-2.1472117-2.0868461-3.7643719-4.2510025-3.7903185z" fill="#f9e109"/><path d="m14.4141173 17.9664263-.2098176-9.44179526 3.5406732.07868163-7.2124825-6.05848527-6.95021037 5.74375876 3.54067322.07868163.20981767 9.44179521" fill="#4891d3" transform="matrix(.70710678 -.70710678 .70710678 .70710678 -4.12852 11.500648)"/><path d="m12.4853606 14.3637593-.1232041-8.00826799 3.5645161.05483871-7.22043012-6.05053763.10967741 7.12903226c.04357914 2.71953675 1.41393991 5.28663815 3.66944071 6.87493465z" fill="#57b7eb" transform="matrix(.70710678 -.70710678 .70710678 .70710678 -1.598155 10.865265)"/><path d="m14.7439577 18.740359v-9.6516129h3.6193549l-7.2387097-6.03225806-7.2387097 6.03225806h3.61935484v9.6516129" fill="#4891d3" transform="matrix(.70710678 .70710678 .70710678 -.70710678 -4.448029 45.941643)"/><path d="m13.0669052 14.6487703v-8.13147215h3.6193548l-7.23870966-6.03225806v7.23870968c.0017673 2.76134863 1.35342906 5.34714903 3.61935486 6.92502053z" fill="#57b7eb" transform="matrix(.70710678 .70710678 .70710678 -.70710678 -1.523402 45.544008)"/><path d="m14.7439577 18.740359v-9.6516129h3.6193549l-7.2387097-6.03225806-7.2387097 6.03225806h3.61935484v9.6516129" fill="#4891d3" transform="matrix(-.70710678 -.70710678 -.70710678 .70710678 59.448029 11.058357)"/><path d="m13.0669052 14.6487703v-8.13147215h3.6193548l-7.23870966-6.03225806v7.23870968c.0017673 2.76134863 1.35342906 5.34714903 3.61935486 6.92502053z" fill="#57b7eb" transform="matrix(-.70710678 -.70710678 -.70710678 .70710678 56.523402 11.455992)"/><path d="m14.7439577 18.740359v-9.6516129h3.6193549l-7.2387097-6.03225806-7.2387097 6.03225806h3.61935484v9.6516129" fill="#4891d3" transform="matrix(-.70710678 .70710678 -.70710678 -.70710678 59.448029 45.941643)"/><path d="m13.0669052 14.6487703v-8.13147215h3.6193548l-7.23870966-6.03225806v7.23870968c.0017673 2.76134863 1.35342906 5.34714903 3.61935486 6.92502053z" fill="#57b7eb" transform="matrix(-.70710678 .70710678 -.70710678 -.70710678 56.523402 45.544008)"/></g></svg>

<?xml version="1.0" encoding="UTF-8"?>
<svg width="47px" height="49px" viewBox="0 0 47 49" version="1.1" xmlns="http://www.w3.org/2000/svg" xmlns:xlink="http://www.w3.org/1999/xlink">
    <!-- Generator: Sketch 52.2 (67145) - http://www.bohemiancoding.com/sketch -->
    <title>growth copy</title>
    <desc>Created with Sketch.</desc>
    <g id="Page-1" stroke="none" stroke-width="1" fill="none" fill-rule="evenodd">
        <g id="offer" transform="translate(-154.000000, -8232.000000)">
            <g id="growth-copy" transform="translate(150.000000, 8228.000000)">
                <path d="M41.5979933,28.483871 C41.5979933,36.2699622 35.2860913,42.5818643 27.5,42.5818643 C19.7139087,42.5818643 13.4020067,36.2699622 13.4020067,28.483871 C13.4020067,20.6977797 19.7139087,14.3858776 27.5,14.3858776 C35.2860913,14.3858776 41.5979933,20.6977797 41.5979933,28.483871 Z" id="Path" fill="#F9E109"></path>
                <path d="M33.6419355,37.2580645 C29.1794355,37.2563508 25.0219758,34.9933971 22.597505,31.2472278 C20.1730342,27.50063 19.8122984,22.7810736 21.6386845,18.7092994 C17.9199345,20.8998487 15.7559476,25.0016129 16.0472782,29.3077369 C16.3386089,33.6134324 19.0355595,37.3865927 23.0152218,39.0561744 C26.9953126,40.7257561 31.5764869,40.005998 34.8526713,37.1967994 C34.4580897,37.2580645 34.0545111,37.2580645 33.6419355,37.2580645 Z" id="Path" fill="#FCBC04"></path>
                <path d="M37.2601492,28.483871 C37.2601492,33.8744048 32.8905338,38.2440202 27.5,38.2440202 C22.1094662,38.2440202 17.7398508,33.8744048 17.7398508,28.483871 C17.7398508,23.0933372 22.1094662,18.7237217 27.5,18.7237217 C32.8905338,18.7237217 37.2601492,23.0933372 37.2601492,28.483871 Z" id="Path" fill="#E59730"></path>
                <path d="M27.5,27.3994099 C26.3022212,27.3994099 25.331078,26.4282667 25.331078,25.2304879 C25.331078,24.0327091 26.3022212,23.0615658 27.5,23.0615658 C28.6977788,23.0615658 29.668922,24.0327091 29.668922,25.2304879 C29.668922,25.8293773 30.1544937,26.3149489 30.7533831,26.3149489 C31.3522725,26.3149489 31.8378441,25.8293773 31.8378441,25.2304879 C31.8314898,23.2574889 30.4944469,21.5376015 28.584461,21.0446166 L28.584461,18.7237217 C28.584461,18.1248323 28.0988894,17.6392607 27.5,17.6392607 C26.9011106,17.6392607 26.415539,18.1248323 26.415539,18.7237217 L26.415539,21.0446166 C24.3271043,21.6117347 22.9757642,23.6313315 23.2489975,25.7780136 C23.5222309,27.9252252 25.3358436,29.5423854 27.5,29.568332 C28.6977788,29.568332 29.668922,30.5394752 29.668922,31.737254 C29.668922,32.9350328 28.6977788,33.9061761 27.5,33.9061761 C26.3022212,33.9061761 25.331078,32.9350328 25.331078,31.737254 C25.331078,31.1383646 24.8455063,30.652793 24.2466169,30.652793 C23.6477275,30.652793 23.1621559,31.1383646 23.1621559,31.737254 C23.1685102,33.710253 24.5055531,35.4301404 26.415539,35.9231253 L26.415539,38.2440202 C26.415539,38.8429096 26.9011106,39.3284812 27.5,39.3284812 C28.0988894,39.3284812 28.584461,38.8429096 28.584461,38.2440202 L28.584461,35.9231253 C30.6728957,35.3560072 32.0242358,33.3364104 31.7510025,31.1897284 C31.4777691,29.0425167 29.6641564,27.4253565 27.5,27.3994099 Z" id="Path" fill="#F9E109"></path>
                <g id="Group-4">
                    <g id="Group" transform="translate(0.000000, 0.956522)" fill="#4891D3">
                        <polyline id="Path" transform="translate(10.663626, 10.255627) rotate(-45.000000) translate(-10.663626, -10.255627) " points="14.4141173 17.9664263 14.2042997 8.52463104 17.7449729 8.60331267 10.5324904 2.5448274 3.58228003 8.28858616 7.12295325 8.36726779 7.33277092 17.809063"></polyline>
                    </g>
                    <path d="M12.4853606,14.3637593 L12.3621565,6.35549131 L15.9266726,6.41033002 L8.70624248,0.359792388 L8.81591989,7.48882465 C8.85949903,10.2083614 10.2298598,12.7754628 12.4853606,14.3637593 Z" id="Path" fill="#57B7EB" transform="translate(12.316458, 7.361776) rotate(-45.000000) translate(-12.316458, -7.361776) "></path>
                </g>
                <g id="Group-4-Copy" transform="translate(11.000000, 46.000000) scale(1, -1) translate(-11.000000, -46.000000) translate(0.000000, 35.000000)">
                    <g id="Group" fill="#4891D3">
                        <polyline id="Path" transform="translate(11.124603, 10.898424) rotate(-45.000000) translate(-11.124603, -10.898424) " points="14.7439577 18.740359 14.7439577 9.0887461 18.3633126 9.0887461 11.1246029 3.05648804 3.8858932 9.0887461 7.50524804 9.0887461 7.50524804 18.740359"></polyline>
                    </g>
                    <path d="M13.0669052,14.6487703 L13.0669052,6.51729815 L16.68626,6.51729815 L9.44755034,0.48504009 L9.44755034,7.72374977 C9.44931764,10.4850984 10.8009794,13.0708988 13.0669052,14.6487703 Z" id="Path" fill="#57B7EB" transform="translate(13.066905, 7.566905) rotate(-45.000000) translate(-13.066905, -7.566905) "></path>
                </g>
                <g id="Group-3" transform="translate(44.000000, 11.000000) scale(-1, 1) translate(-44.000000, -11.000000) translate(33.000000, 0.000000)">
                    <g id="Group-Copy" fill="#4891D3">
                        <polyline id="Path" transform="translate(11.124603, 10.898424) rotate(-45.000000) translate(-11.124603, -10.898424) " points="14.7439577 18.740359 14.7439577 9.0887461 18.3633126 9.0887461 11.1246029 3.05648804 3.8858932 9.0887461 7.50524804 9.0887461 7.50524804 18.740359"></polyline>
                    </g>
                    <path d="M13.0669052,14.6487703 L13.0669052,6.51729815 L16.68626,6.51729815 L9.44755034,0.48504009 L9.44755034,7.72374977 C9.44931764,10.4850984 10.8009794,13.0708988 13.0669052,14.6487703 Z" id="Path-Copy-3" fill="#57B7EB" transform="translate(13.066905, 7.566905) rotate(-45.000000) translate(-13.066905, -7.566905) "></path>
                </g>
                <g id="Group-3-Copy" transform="translate(44.000000, 46.000000) scale(-1, -1) translate(-44.000000, -46.000000) translate(33.000000, 35.000000)">
                    <g id="Group-Copy" fill="#4891D3">
                        <polyline id="Path" transform="translate(11.124603, 10.898424) rotate(-45.000000) translate(-11.124603, -10.898424) " points="14.7439577 18.740359 14.7439577 9.0887461 18.3633126 9.0887461 11.1246029 3.05648804 3.8858932 9.0887461 7.50524804 9.0887461 7.50524804 18.740359"></polyline>
                    </g>
                    <path d="M13.0669052,14.6487703 L13.0669052,6.51729815 L16.68626,6.51729815 L9.44755034,0.48504009 L9.44755034,7.72374977 C9.44931764,10.4850984 10.8009794,13.0708988 13.0669052,14.6487703 Z" id="Path-Copy-3" fill="#57B7EB" transform="translate(13.066905, 7.566905) rotate(-45.000000) translate(-13.066905, -7.566905) "></path>
                </g>
            </g>
        </g>
    </g>
</svg>
